!!!AGN: Motet
!!!SCT: Picker (1987)
!!!voices: 4
!!!COM: Jacotin
!!!OTL: Interveniat pro Gabrieli
**kern	**kern	**kern	**kern
*part4	*part3	*part2	*part1
*staff4	*staff3	*staff2	*staff1
*I"Bassus	*I"Tenor	*I"Altus	*I"Superius
*I'B	*I'T	*I'A	*I'S
*clefF4	*clefGv2	*clefGv2	*clefG2
*k[]	*k[]	*k[]	*k[]
*C:	*C:	*C:	*C:
*M2/1	*M2/1	*M2/1	*M2/1
*met(C|)	*met(C|)	*met(C|)	*met(C|)
0r	1E	1r	1r
.	1E	1B	1ee
=1	=1	=1	=1
1E	1.G	1B	1ee
1E	.	[1B	[1gg
.	2E	.	.
=2	=2	=2	=2
1.G	0E	2B]	2gg]
.	.	2B	2ee
.	.	[1B	1ee
2E	.	.	.
=3	=3	=3	=3
0E	1.G	1B]	2r
.	.	.	1ee
.	.	1r	.
.	2G	.	2ee
=4	=4	=4	=4
0r	1A	0r	1cc
.	1B	.	1dd
=5	=5	=5	=5
1.C	0G	1.c	0ee
2C	.	2c	.
=6	=6	=6	=6
1D	0r	2A	0r
.	.	1B	.
1E	.	.	.
.	.	[2G	.
=7	=7	=7	=7
1C	1.G	2G]	1.ee
.	.	1c	.
[1C	.	.	.
.	2G	2c	2ee
=8	=8	=8	=8
2C]	1G	1c	1ee
2C	.	.	.
1C	1e	1c	1gg
=9	=9	=9	=9
1D	1d	1A	1ff
1E	1B	[1G	[1ee
=10	=10	=10	=10
1C	0c	1G]	1ee]
1AA	.	1A	1ee
=11	=11	=11	=11
0AA	0c	0A	0ee
=12	=12	=12	=12
0D	0d	0A	0ff
=13	=13	=13	=13
1AA	0c	2A	2ee
.	.	2E	1a
2r	.	2F	.
[2AA	.	2E	2a
=14	=14	=14	=14
2AA]	1r	2F	2.cc
2AA	.	2F	.
.	.	.	4dd
2.C	[1G	1E	2ee
.	.	.	2ee
4D	.	.	.
=15	=15	=15	=15
2E	2G]	1C	1ee
2E	2G	.	.
1D	1A	2r	1ff
.	.	[2A	.
=16	=16	=16	=16
1r	1c	2A]	0ee
.	.	2A	.
2r	1A	2.c	.
[2AA	.	.	.
.	.	4d	.
=17	=17	=17	=17
2AA]	1c	2e	2r
2AA	.	2e	1a
2.C	2c	1e	.
.	4B	.	2a
4D	4A	.	.
=18	=18	=18	=18
2E	2G	0r	2.cc
2F	1A	.	.
.	.	.	4dd
1E	.	.	2ee
.	2G	.	2ee
=19	=19	=19	=19
1r	1A	2r	[0ee
.	.	1A	.
1AA	2r	.	.
.	[2E	2A	.
=20	=20	=20	=20
2AA	2E]	2.c	1ee]
2.C	2E	.	.
.	.	4d	.
.	2.G	2e	1r
4D	.	.	.
[2E	.	2G	.
.	4A	.	.
=21	=21	=21	=21
2E]	2B	2G	1r
2E	2B	2G	.
2F	2A	4c	2r
.	.	4B	.
2E	[2c	4A	[2ee
.	.	4G	.
=22	=22	=22	=22
1F	4c]	1A	2ee]
.	4B	.	.
.	1A	.	2dd
1E	.	1B	[1ee
.	2G#i	.	.
=23	=23	=23	=23
0AA	0A	2r	1ee]
.	.	2c	.
.	.	2c	2r
.	.	2c	2cc
=24	=24	=24	=24
2r	0r	1A	2cc
2F	.	.	2cc
2F	.	1c	1a
2F	.	.	.
=25	=25	=25	=25
1D	1r	2B	0r
.	.	4A	.
.	.	4G	.
1F	1c	2A	.
.	.	2A	.
=26	=26	=26	=26
2E	2c	1G	1r
4D	2c	.	.
4C	.	.	.
2D	1A	1r	2r
2D	.	.	2ff
=27	=27	=27	=27
1C	1c	2r	2ee
.	.	2G	2ee
1r	2B	2G	1dd
.	4A	2G	.
.	4G	.	.
=28	=28	=28	=28
0r	2A	2D	1ff
.	2A	2F	.
.	2G	2C	2ee
.	[2c	2C	4dd
.	.	.	4cc
=29	=29	=29	=29
1r	2c]	1G	2dd
.	2B	.	2dd
2r	2G	2C	2cc
2AA	2A	[2E	2cc
=30	=30	=30	=30
2C	1G	2E]	2cc
2C	.	4D	2cc
.	.	4C	.
2GG	1r	1D	2b
2AA	.	.	2a
=31	=31	=31	=31
2BB	0r	2r	2a
2BB	.	2D	2g#i
1AA	.	2F	2a
.	.	2F	2ff
=32	=32	=32	=32
0r	0G	2C	2ee
.	.	2D	1dd
.	.	2E	.
.	.	2E	2cc#i
=33	=33	=33	=33
2r	0A	1D	1dd
2D	.	.	.
2F	.	2r	2r
2F	.	2D	2dd
=34	=34	=34	=34
2.C	1c	4G	2ee
.	.	4E	.
.	.	1A	2ee
4D	.	.	.
2E	1G	.	1cc
2E	.	[2G	.
=35	=35	=35	=35
1D	1A	2G]	1dd
.	.	2F#i	.
1r	2B	1G	2r
.	2B	.	2dd
=36	=36	=36	=36
0r	1A	2r	2ff
.	.	2D	2ff
.	2r	2F	2.cc
.	2A	2F	.
.	.	.	4dd
=37	=37	=37	=37
2r	2c	2.C	2ee
2AA	2c	.	2ee
.	.	4D	.
2C	2.G	2E	1ee
2C	.	2E	.
.	4A	.	.
=38	=38	=38	=38
2GG	2B	2.D	0r
2GG	2B	.	.
.	.	4E	.
1AA	2A	4F	.
.	.	4E	.
.	[2F	[2A	.
=39	=39	=39	=39
1BB-X	2F]	2A]	1r
.	4E	2G	.
.	4D	.	.
[1AA	2C	2A	2r
.	[2c	2F	[2a
=40	=40	=40	=40
1AA]	2c]	1E	4a]
.	.	.	4b
.	4B	.	4cc
.	4A	.	4dd
1r	2G	1r	2ee
.	[2A	.	[2ff
=41	=41	=41	=41
1r	4A]	2r	4ff]
.	4G	.	4ee
.	4F	2.A	2ee
.	4E	.	.
2r	1F	.	2dd
.	.	4B	.
[2AA	.	4c	[2cc
.	.	4d	.
=42	=42	=42	=42
4AA]	1E	1.e	2cc]
4BB	.	.	.
4C	.	.	4b
4D	.	.	4a
2E	2r	.	2g
[2F	[2A	2d	4d
.	.	.	4e
=43	=43	=43	=43
2F]	4A]	1c	4f
.	4B	.	4g
4E	4c	.	4a
4D	4d	.	4b
2C	2e	2r	1cc
[2F	[2c	[2A	.
=44	=44	=44	=44
2F]	2c]	4A]	0r
.	.	4B	.
2F	4B	4c	.
.	4A	4d	.
2E	2G	2e	.
[2D	[2A	[2f	.
=45	=45	=45	=45
2D]	4A]	4f]	2r
.	4G	4e	.
2C	4F	2e	2.a
.	4E	.	.
2D	1F	2d	.
.	.	.	4b
[2AA	.	[2c	4cc
.	.	.	4dd
=46	=46	=46	=46
4AA]	1E	2c]	1ee
4BB	.	.	.
4C	.	4B	.
4D	.	4A	.
2E	1r	2G	2r
[2F	.	4D	[2a
.	.	4E	.
=47	=47	=47	=47
2F]	2r	4F	4a]
.	.	4G	4b
4E	2F	4A	4cc
4D	.	4B	4dd
2C	2G	1c	2ee
2AA	[2A	.	[2ff
=48	=48	=48	=48
2D	4A]	1A	2ff]
.	4G	.	.
2C	2E	.	1ee
1D	1F	2r	.
.	.	2A	2dd
=49	=49	=49	=49
[0AA	0E	1.c	[0ee
.	.	[2c	.
=50	=50	=50	=50
1AA]	0r	2c]	0ee]
.	.	2c	.
1r	.	2c	.
.	.	2c	.
=51	=51	=51	=51
1AA	0r	2A	1r
.	.	1c	.
[1C	.	.	1ee
.	.	4B	.
.	.	4A	.
=52	=52	=52	=52
2C]	0E	1G	1.gg
1C	.	.	.
.	.	2r	.
2C	.	[2c	[2gg
=53	=53	=53	=53
2C	1.G	4c]	2gg]
.	.	4d	.
2C	.	4e	2gg
.	.	4c	.
2BB	.	2d	2gg
[2C	[2G	[2e	2gg
=54	=54	=54	=54
2C]	2G]	2e]	1ee
4BB	2G	4d	.
4AA	.	4c	.
[1GG	2G	2B	1r
.	2G	[2c	.
=55	=55	=55	=55
1GG]	2D	2c]	2r
.	1G	2B	2dd
1C	.	1c	2ee
.	4F	.	[2cc
.	4E	.	.
=56	=56	=56	=56
2r	0D	1r	2cc]
2GG	.	.	4b
.	.	.	4a
2GG	.	2r	4b
.	.	.	2cc
2GG	.	2G	.
.	.	.	4b
=57	=57	=57	=57
2AA	2r	2F	2cc
2BB	2G	2D	2r
2C	2G	2E	2r
2GG	2G	[2D	[2gg
=58	=58	=58	=58
1D	2A	4D]	2gg]
.	.	4E	.
.	2B	4F	2ff
.	.	4G	.
1r	4c	4A	2ee
.	4B	4E	.
.	4A	2G	[2dd
.	4G	.	.
=59	=59	=59	=59
1r	1A	1D	4dd]
.	.	.	4ee
.	.	.	4ff
.	.	.	4dd
1G	1B	1r	2ee
.	.	.	[2dd
=60	=60	=60	=60
2F	2A	1r	4dd]
.	.	.	4cc
2E	2G	.	2cc
2.D	1A	2r	1dd
.	.	[2d	.
4E	.	.	.
=61	=61	=61	=61
4F	2r	2d]	0r
4D	.	.	.
2E	1G	2c	.
1D	.	2B	.
.	2F	4A	.
.	.	4B	.
=62	=62	=62	=62
0r	2E	4c	1r
.	.	4A	.
.	4D	2B	.
.	4E	.	.
.	4F	2A	2r
.	4D	.	.
.	2E	2G	[2gg
=63	=63	=63	=63
1r	1D	1A	2gg]
.	.	.	2ff
1G	1r	2r	2ee
.	.	[2d	4dd
.	.	.	4ee
=64	=64	=64	=64
2F	0r	2d]	4ff
.	.	.	4dd
2E	.	2c	2ee
2.D	.	2B	1r
.	.	[2A	.
4E	.	.	.
=65	=65	=65	=65
4F	1r	4A]	0r
4D	.	4B	.
2E	.	4c	.
.	.	4A	.
2.D	1d	2B	.
.	.	[2A	.
4E	.	.	.
=66	=66	=66	=66
2F	2c	2A]	2r
2G	2B	1d	1gg
1D	2.A	.	.
.	.	2D	2ff
.	4B	.	.
=67	=67	=67	=67
2r	4c	2A	2ee
.	4A	.	.
1D	2B	1F	4dd
.	.	.	4ee
.	[1A	.	4ff
.	.	.	4dd
2C	.	2E	2ee
=68	=68	=68	=68
2D	1A]	2F	1dd
2.F	.	2D	.
.	2r	1A	1r
4E	.	.	.
4D	[2A	.	.
4C	.	.	.
=69	=69	=69	=69
2D	2A]	0r	0r
2E	2G	.	.
2.C	2A	.	.
.	[2c	.	.
4D	.	.	.
=70	=70	=70	=70
2E	4c]	0r	1r
.	4B	.	.
1F	4A	.	.
.	4G	.	.
.	2A	.	2r
4E	2B	.	[2dd
4D	.	.	.
=71	=71	=71	=71
1E	2.G	0r	2dd]
.	.	.	2cc
.	4A	.	.
[1D	2B	.	2dd
.	[2A	.	[2ff
=72	=72	=72	=72
1D]	4A]	2r	4ff]
.	4G	.	4ee
.	4F	1A	4dd
.	4E	.	4cc
1r	2F	.	2dd
.	2E	2G	2ee
=73	=73	=73	=73
1r	1F	2A	2.cc
.	.	2.c	.
.	.	.	4dd
2r	2E	.	2ee
.	.	4B	.
2D	2r	4A	[2ff
.	.	4G	.
=74	=74	=74	=74
2D	2r	2A	2ff]
2D	2A	2F	4ee
.	.	.	4dd
2.C	2A	[1c	1ee
.	2A	.	.
4D	.	.	.
=75	=75	=75	=75
2E	2G	1c]	0r
2.F	2.A	.	.
.	.	1r	.
4E	4G	.	.
4D	[2B	.	.
4C	.	.	.
=76	=76	=76	=76
4D	2B]	0r	2r
4C	.	.	.
4BB	1A	.	2dd
4AA	.	.	.
2BB	.	.	2dd
2BB	2G#i	.	2dd
=77	=77	=77	=77
1AA	1A	2r	2.cc
.	.	2A	.
.	.	.	4dd
1r	1r	2A	2ee
.	.	2A	4cc
.	.	.	4dd
=78	=78	=78	=78
1r	2.E	2.G	4ee
.	.	.	4ff
.	.	.	1gg
.	4F	4A	.
2.E	2G	2B	.
.	2A	2c	[2ee
4F	.	.	.
=79	=79	=79	=79
2G	2E	2B	2ee]
2A	2A	2.c	2ee
2A	2c	.	2ff
.	.	4B	.
2D	2d	[2A	2ff
=80	=80	=80	=80
1E	1B	2A]	2ee
.	.	2G	2ee
1AA	1A	1c	1ee
=81	=81	=81	=81
0AA	0c	0A	0ee
=82	=82	=82	=82
1D	1A	1F	1ff
1D	1B	1F	1dd
=83	=83	=83	=83
0C	0c	0G	0ee
=84	=84	=84	=84
1.C	1.e	1.c	1.gg
2C	2e	2c	2gg
=85	=85	=85	=85
1F	2c	1A	1ff
.	1d	.	.
1G	.	1B	1dd
.	[2G	.	.
=86	=86	=86	=86
1C	4G]	1c	2ee
.	4E	.	.
.	2.e	.	2.gg
2r	.	1r	.
.	4d	.	4ff
2C	[2c	.	[2ee
=87	=87	=87	=87
2F	2c]	2r	2ee]
2F	4B	2A	2dd
.	4A	.	.
2E	1G	2c	1ee
2C	.	2c	.
=88	=88	=88	=88
2D	0r	2B	0r
2E	.	2G	.
2F	.	2A	.
4E	.	2B	.
4D	.	.	.
=89	=89	=89	=89
2E	2r	1c	0r
2.F	2A	.	.
.	2c	1r	.
4G	.	.	.
4A	2c	.	.
4F	.	.	.
=90	=90	=90	=90
2G	2B	0r	2r
4F	2G	.	2cc
4E	.	.	.
4D	2A	.	2ff
4C	.	.	.
2D	2B	.	2ff
=91	=91	=91	=91
1C	2c	0r	2ee
.	4B	.	2cc
.	4A	.	.
1r	2G	.	2dd
.	2c	.	2ee
=92	=92	=92	=92
0r	4A	0r	2.ff
.	4G	.	.
.	4A	.	.
.	4B	.	4gg
.	2c	.	2ee
.	[2d	.	[2ff
=93	=93	=93	=93
1r	4d]	0r	4ff]
.	4c	.	4ee
.	1c	.	4dd
.	.	.	4cc
2r	.	.	1dd
2D	2B	.	.
=94	=94	=94	=94
2F	4A	2r	1cc
.	4B	.	.
2F	4c	2A	.
.	4d	.	.
2E	1e	2c	1r
2C	.	2c	.
=95	=95	=95	=95
2D	0r	2B	0r
2E	.	2G	.
2F	.	2A	.
2G	.	2B	.
=96	=96	=96	=96
2E	0r	2.c	0r
2.A	.	.	.
.	.	4B	.
.	.	2c	.
4G	.	.	.
4F	.	[2d	.
4E	.	.	.
=97	=97	=97	=97
4F	0r	2d]	0r
4E	.	.	.
4D	.	1c	.
4C	.	.	.
1D	.	.	.
.	.	2B	.
=98	=98	=98	=98
1.C	1r	2c	0ee
.	.	4B	.
.	.	4A	.
.	1c	2G	.
2AA	.	2A	.
=99	=99	=99	=99
0AA	1.c	1E	1.ee
.	.	1r	.
.	2A	.	2ee
=100	=100	=100	=100
0r	2B	0r	2gg
.	2c	.	2gg
.	2.d	.	1ff
.	4c	.	.
=101	=101	=101	=101
2r	4B	1E	1ee
.	4A	.	.
2AA	2c	.	.
2BB	1B	2G	2r
2C	.	2G	[2ee
=102	=102	=102	=102
1D	1A	1F	2ee]
.	.	.	2dd
[1AA	2r	1E	2.ee
.	[2A	.	.
.	.	.	4dd
=103	=103	=103	=103
1AA]	4A]	0A	4cc
.	4G	.	4b
.	4F	.	2cc
.	4E	.	.
2r	1F	.	4b
.	.	.	4a
2AA	.	.	4cc
.	.	.	4dd
=104	=104	=104	=104
1.C	1E	1.G	1ee
.	2r	.	2ee
2C	2E	2A	4dd
.	.	.	4cc
=105	=105	=105	=105
2GG	2.G	1B	2dd
2.G	.	.	2dd
.	4F	.	.
.	4E	1G	[1ee
4F	4D	.	.
4E	2C	.	.
4D	.	.	.
=106	=106	=106	=106
2C	2G	1.c	1ee]
2.AA	2A	.	.
.	[1E	.	2r
4BB	.	.	.
4C	.	4B	2cc
4D	.	4A	.
=107	=107	=107	=107
2E	1E]	2G	2b
2.AA	.	2A	1cc
.	2r	1E	.
4BB	.	.	.
4C	2c	.	4b
4D	.	.	4a
=108	=108	=108	=108
1E	2B	1r	2g
.	2G	.	2c
2r	4A	2r	1cc
.	4G	.	.
2AA	4F	2A	.
.	4E	.	.
=109	=109	=109	=109
2BB	2D	2G	0r
2C	2E	2.A	.
2D	1F	.	.
.	.	4G	.
2AA	.	2A	.
=110	=110	=110	=110
2.C	1E	2G	0r
.	.	2.E	.
4BB	.	.	.
4C	1r	.	.
4D	.	4F	.
[2E	.	4G	.
.	.	4A	.
=111	=111	=111	=111
2E]	0r	2G	0r
4D	.	1A	.
4C	.	.	.
1BB	.	.	.
.	.	2G#i	.
=112	=112	=112	=112
1AA	2r	1A	2r
.	2c	.	2ee
2r	2B	2r	2dd
2AA	[2c	2A	[2ee
=113	=113	=113	=113
2C	2c]	2G	4ee]
.	.	.	4dd
2C	4B	2E	2ee
.	4A	.	.
2.GG	2B	2.G	2dd
.	[2d	.	2b
4AA	.	4F	.
=114	=114	=114	=114
4BB	4d]	2.D	2.dd
4C	4c	.	.
2.D	2A	.	.
.	.	4E	4cc
.	2r	4F	2a
4C	.	4G	.
2AA	[2c	[2A	[2ff
=115	=115	=115	=115
2D	4c]	4A]	2ff]
.	4B	4G	.
2C	2c	4F	1ee
.	.	4E	.
1D	1A	1F	.
.	.	.	2dd
=116	=116	=116	=116
1AA	2r	0E	[0eel
.	2A	.	.
2r	2G	.	.
[2AA	[2A	.	.
=117	=117	=117	=117
4AA]	4A]	2r	1ee_
4BB	4G	.	.
4C	2A	2c	.
4D	.	.	.
=118	=118	=118	=118
2E	2G	2B	0ee_
4AA	2.E	2A	.
4BB	.	.	.
4C	.	2G	.
4D	4F	.	.
[2C	4G	2E	.
.	4A	.	.
=119	=119	=119	=119
2C]	2G	1c	0ee_
4BB	1A	.	.
4AA	.	.	.
1E	.	1B	.
.	2G#i	.	.
=120	=120	=120	=120
0AA	1A	2A	0ee_
.	.	1c	.
.	1c	.	.
.	.	4B	.
.	.	4A	.
=121	=121	=121	=121
00El	00Bl	00Gl	00ee]
==	==	==	==
*-	*-	*-	*-
!!!system-decoration: [*]
!!!RDF**kern: i = editorial accidental
!!!RDF**kern: l = terminal long
!!!ENC: Benjamin Ory
!!!END: 2022/4/21
!!!EED: Benjamin Ory
!!!EEV: 2022/04/21
!!!YEC: Copyright 2022 Benjamin Ory, All Rights Reserved
!!!ONB: Translated from MusicXML on 2022/04/21